Catalina-light/actions/22/zoom-next.svg

<svg xmlns="http://www.w3.org/2000/svg" viewBox="0 0 22 22">
  <defs id="defs3051">
    <style type="text/css" id="current-color-scheme">
      .ColorScheme-Text {
        color:#4d4d4d
      }
      </style>
  </defs>
    <path
       style="fill:currentColor;fill-opacity:1;stroke:none"
       class="ColorScheme-Text"
       d="m 15.375,3 3.251953,0.00977 c 0.10335,3.3e-4 0.196172,0.043528 0.263672,0.1113282 C 18.958215,3.1888637 19.0003,3.2816256 19,3.3847656 l -0.0098,3.2421875 C 18.989574,6.8332531 18.820031,7.0007 18.613281,7 18.406551,6.99934 18.239614,6.83125 18.240234,6.625 L 18.25,3.7558594 15.373047,3.7460938 C 15.166347,3.7454436 14.99935,3.5792669 15,3.3730469 15.00057,3.1667569 15.16814,2.99929 15.375,3 Z M 6.625,3 C 6.83186,2.99929 6.99944,3.1667569 7,3.3730469 7.00065,3.5792669 6.833663,3.7454437 6.626953,3.7460938 L 3.75,3.7558594 3.759766,6.625 C 3.760376,6.83125 3.593439,6.99934 3.386719,7 3.179959,7.0007 3.010426,6.8332531 3.009766,6.6269531 L 3,3.3847656 c -3e-4,-0.10314 0.041785,-0.1959019 0.109375,-0.2636718 0.0675,-0.0678 0.160322,-0.1109982 0.263672,-0.1113282 L 6.625,3 Z m 2.542969,3.75 c 0.171013,-1.414e-4 0.342133,0.063843 0.472656,0.1914062 l 3.662109,3.5781248 c 0.13093,0.12804 0.196646,0.296234 0.197266,0.464844 6.2e-4,0.16872 -0.06532,0.337877 -0.195312,0.466797 l -3.634766,3.605469 c -0.26011,0.25766 -0.685356,0.258133 -0.947266,0.002 -0.26151,-0.25599 -0.261993,-0.673821 -0.00195,-0.931641 L 11.882812,10.990234 8.697266,7.8769531 C 8.435746,7.6208731 8.433319,7.2031625 8.693359,6.9453125 8.822894,6.8168442 8.995009,6.7510862 9.166016,6.75 l 0.00195,0 z M 18.613281,15 c 0.20675,-7e-4 0.376293,0.166757 0.376953,0.373047 L 19,18.615234 c 3e-4,0.10313 -0.04179,0.195892 -0.109375,0.263672 -0.0675,0.0678 -0.160322,0.110998 -0.263672,0.111328 L 15.375,19 c -0.20686,7.1e-4 -0.37443,-0.166747 -0.375,-0.373047 -6.5e-4,-0.20621 0.166347,-0.372397 0.373047,-0.373047 L 18.25,18.244141 18.240234,15.375 C 18.239614,15.16876 18.406551,15.00067 18.613281,15 Z M 3.386719,15 c 0.20672,6.7e-4 0.373657,0.16876 0.373047,0.375 L 3.75,18.244141 l 2.876953,0.0098 C 6.833663,18.254556 7.00065,18.420743 7,18.626953 6.99944,18.833253 6.83186,19.00071 6.625,19 l -3.251953,-0.0098 C 3.269697,18.989904 3.176875,18.946706 3.109375,18.878906 3.041785,18.811126 2.9997,18.718364 3,18.615234 l 0.00977,-3.242187 C 3.010426,15.166757 3.179959,14.9993 3.386719,15 Z"
        />
</svg>

<svg viewBox="0 0 22 22" xmlns="http://www.w3.org/2000/svg">
<defs>
<style id="current-color-scheme" type="text/css">.ColorScheme-Text {
        color:#363636
      }</style>
</defs>
<path class="ColorScheme-Text" d="m15.375 3 3.252 0.00977c0.10335 3.3e-4 0.19617 0.043528 0.26367 0.11133 0.06759 0.067766 0.10968 0.16053 0.10938 0.26367l-0.0098 3.2422c-6.26e-4 0.2063-0.17017 0.37375-0.37692 0.37305-0.20673-6.6e-4 -0.37367-0.16875-0.37305-0.375l0.009766-2.8691-2.877-0.0097656c-0.2067-6.502e-4 -0.3737-0.16683-0.37305-0.37305 5.7e-4 -0.20629 0.16814-0.37376 0.375-0.37305zm-8.75 0c0.20686-7.1e-4 0.37444 0.16676 0.375 0.37305 6.5e-4 0.20622-0.16634 0.3724-0.37305 0.37305l-2.877 0.0097656 0.009766 2.8691c6.1e-4 0.20625-0.16633 0.37434-0.37305 0.375-0.20676 7e-4 -0.37629-0.16675-0.37695-0.37305l-0.009766-3.2422c-3e-4 -0.10314 0.041785-0.1959 0.10938-0.26367 0.0675-0.0678 0.16032-0.111 0.26367-0.11133l3.252-0.0097656zm2.543 3.75c0.17101-1.414e-4 0.34213 0.063843 0.47266 0.19141l3.6621 3.5781c0.13093 0.12804 0.19665 0.29623 0.19727 0.46484 6.2e-4 0.16872-0.06532 0.33788-0.19531 0.4668l-3.6348 3.6055c-0.26011 0.25766-0.68536 0.25813-0.94727 2e-3 -0.26151-0.25599-0.26199-0.67382-0.00195-0.93164l3.1621-3.1368-3.1855-3.1133c-0.26152-0.25608-0.26395-0.67379-0.003907-0.93164 0.12954-0.12847 0.30165-0.19423 0.47266-0.19531h0.00195zm9.4453 8.25c0.20675-7e-4 0.37629 0.16676 0.37695 0.37305l0.009766 3.2422c3e-4 0.10313-0.04179 0.19589-0.10938 0.26367-0.0675 0.0678-0.16032 0.111-0.26367 0.11133l-3.252 0.009766c-0.20686 7.1e-4 -0.37443-0.16675-0.375-0.37305-6.5e-4 -0.20621 0.16635-0.3724 0.37305-0.37305l2.877-0.009765-0.009766-2.8691c-6.2e-4 -0.20624 0.16632-0.37433 0.37305-0.375zm-15.227 0c0.20672 6.7e-4 0.37366 0.16876 0.37305 0.375l-0.009766 2.8691 2.877 0.0098c0.20671 6.15e-4 0.3737 0.1668 0.37305 0.37301-5.6e-4 0.2063-0.16814 0.37376-0.375 0.37305l-3.252-0.0098c-0.10335-2.96e-4 -0.19617-0.043494-0.26367-0.11129-0.06759-0.06778-0.10968-0.16054-0.10938-0.26367l0.00977-3.2422c6.56e-4 -0.20629 0.17019-0.37375 0.37695-0.37305z" fill="#363636"/>
</svg>
